svgs/accubattery.svg

<svg width="192" height="192" viewBox="0 0 192 192" fill="none" xmlns="http://www.w3.org/2000/svg"><path d="M40 162V42a8 8 0 0 1 8-8h26V22h44v12h26a8 8 0 0 1 8 8v120a8 8 0 0 1-8 8H48a8 8 0 0 1-8-8Z" stroke="#000" stroke-width="12" stroke-linejoin="round"/><path d="M64 75.88c10-.752 21-3.752 32-7.752 11 4 22 7 32 7.752v23.165C128 116 115.952 136.872 96 142c-20.048-5.128-32-26-32-42.955V75.88Z" stroke="#000" stroke-width="12" stroke-linecap="round" stroke-linejoin="round"/><path d="m100 88-12 16h16l-12 16" stroke="#000" stroke-width="12" stroke-linecap="round" stroke-linejoin="round"/></svg>

<?xml version="1.0" encoding="UTF-8" standalone="no"?><svg xmlns:android="http://schemas.android.com/apk/res/android" height="192" width="192" xmlns="http://www.w3.org/2000/svg">
  <path d="M40,162V42C40,37.582 43.582,34 48,34H74V22H118V34H144C148.418,34 152,37.582 152,42V162C152,166.418 148.418,170 144,170H48C43.582,170 40,166.418 40,162Z" fill="#000000" fill-opacity="0.0" stroke="#000000" stroke-linejoin="round" stroke-width="12"/>
  <path d="M64,75.88C74,75.128 85,72.128 96,68.128C107,72.128 118,75.128 128,75.88V99.045C128,116 115.952,136.872 96,142C75.952,136.872 64,116 64,99.045V75.88Z" fill="#000000" fill-opacity="0.0" stroke="#000000" stroke-linecap="round" stroke-linejoin="round" stroke-width="12"/>
  <path d="M100,88L88,104H104L92,120" fill="#000000" fill-opacity="0.0" stroke="#000000" stroke-linecap="round" stroke-linejoin="round" stroke-width="12"/>
</svg>
